icons/svg/file-find.svg

<svg xmlns="http://www.w3.org/2000/svg" version="1.1" baseProfile="full" width="24" height="24" viewBox="0 0 24.00 24.00" xml:space="preserve"><path fill="#000" fill-opacity="1" stroke-linejoin="round" d="M9 13c0 1.66 1.34 3 3 3s3-1.34 3-3-1.34-3-3-3-3 1.34-3 3zm11 6.59V8l-6-6H6c-1.1 0-1.99.9-1.99 2L4 20c0 1.1.89 2 1.99 2H18c.45 0 .85-.15 1.19-.4l-4.43-4.43c-.8.52-1.74.83-2.76.83-2.76 0-5-2.24-5-5s2.24-5 5-5 5 2.24 5 5c0 1.02-.31 1.96-.83 2.75L20 19.59z"/></svg>

﻿<?xml version="1.0" encoding="utf-8"?>
<!DOCTYPE svg PUBLIC "-//W3C//DTD SVG 1.1//EN" "http://www.w3.org/Graphics/SVG/1.1/DTD/svg11.dtd">
<svg xmlns="http://www.w3.org/2000/svg" xmlns:xlink="http://www.w3.org/1999/xlink" version="1.1" baseProfile="full" width="24" height="24" viewBox="0 0 24.00 24.00" enable-background="new 0 0 24.00 24.00" xml:space="preserve">
	<path fill="#000000" fill-opacity="1" stroke-linejoin="round" d="M 9,13C 9,14.66 10.34,16 12,16C 13.66,16 15,14.66 15,13C 15,11.34 13.66,10 12,10C 10.34,10 9,11.34 9,13 Z M 20,19.59L 20,8L 14,2L 6,2C 4.9,2 4.01,2.9 4.01,4L 4,20C 4,21.1 4.89,22 5.99,22L 18,22C 18.45,22 18.85,21.85 19.19,21.6L 14.76,17.17C 13.96,17.69 13.02,18 12,18C 9.24,18 7,15.76 7,13C 7,10.24 9.24,8 12,8C 14.76,8 17,10.24 17,13C 17,14.02 16.69,14.96 16.17,15.75L 20,19.59 Z "/>
</svg>
